X: 5
T: Bonnie Kate
R: reel
M: 4/4
L: 1/8
K: Cmaj
|:A|GEcG AcGE|CEGE D2DA|GEGc AFAc|BdGB c2c:|f|ecgc ecca|gcec defa|gceg fagf|egde c2cf|ecgc ecca|gcec defd|cFAc BAGf|egde c2c||


Tune 754	Setting 754

